X:165
T:Maguire's
M:6/8
L:1/8
Q:120
S:THSP
R:jig
Z:
K:G
"G"~G3 AGA|"Em"BGE EDE|"G"GBd e2d|"C"egd "D"edB|
"G"~G3 AGA|"Em"BGE EDE|"G"GBd "C"ege|"D"dBA "G"G2D:|:
"G"GBd e2d|egd edB|"D"GBc d2B|ded dBA
|1 "G"GBd e2d|egd edB|GBd ege|"D"dBA "G"G2D
:|2 "G"~G3 AGA|"Em"BGE EDE|"G"GBd "C"ege|"D"dBA "G"G2D|]
